X:160
T: Úgy elmenéék a bú elől...
M: 2/4
L: 1/8
K: Bb
gfed | gfed | 
gfed | BccB | 
Bccc | gdcB | 
BccB | cBGG | 

